X:1
T:[ID 11-28e]
T:[ID 11-28e]
T:Bezeichnung standardisiert: Walzer Nr 11 Walzer
T:Urheber unbekannt Datum in der hier transkribierten schriftlichen Quelle: vermutlich um 1800
C:Urheber unbekannt
C:Datum in der hier transkribierten schriftlichen Quelle: vermutlich um 1800
L:1/8
M:3/4
K:Eb
V:1 treble 
V:1
"^1)" [B,G]2 | (E/F/E/D/) E2 z2 | (E/F/E/D/) E2 z2 | F/G/F/=E/ F/G/F/E/ G/F/E/F/ | B>c B/A/G/F/ | %5
 E/F/E/D/ E2 z2 | E/F/E/D/ E2 z2 | A/B/e/g/ f/e/d/c/ B/A/G/F/ |"^1)" EG E2 :: Bd | f=efefe | %11
 fb f3 d | (f=e)(_ed)(ec) | df B2 Bd | (f2 =e2) | fb f3 d | f=e_edec | B2 z2 :: B2 | e4 g2 | %20
 b2 g2 e2 | defgaf | efge B2 | e4 g2 | b2 g2 e2 | (defgaf) | e2 z2 :| %27

